X:48
T:Scully Casey's
R:jig
H:Related to "The Mouse in The Cupboard", #54
Z:id:hn-jig-115
M:6/8
K:Ador
cBc BAG|EGA GAB|cBc dcd|ega ged|
cBc BAG|EGA GAB|cBc dBG|BAG A2B:|
cBc dcd|ega ged|eaa aga|bag a2g|
eaa c'aa|ac'a ged|cBc dBG|BAG A2B:|
